svg/color/snowon.svg

<svg width="40" height="40" viewBox="0 0 40 40" fill="none" xmlns="http://www.w3.org/2000/svg">
<g clip-path="url(#clip0_820_3891)">
<path d="M20 0C31.0457 0 40 8.9543 40 20C40 31.0457 31.0457 40 20 40C8.95431 40 7.90517e-06 31.0457 0 20C6.58765e-07 8.95431 8.95431 1.97595e-06 20 0Z" fill="#D4F0FA"/>
<path d="M26 6C30.4183 6 34 9.58172 34 14V26C34 30.4183 30.4183 34 26 34H14C9.58172 34 6 30.4183 6 26V14C6 9.58172 9.58172 6 14 6H26Z" fill="#29B5E8"/>
<g clip-path="url(#clip1_820_3891)">
<path d="M16.825 20.3332C16.8567 20.2074 16.8883 20.0799 16.8883 19.9532C16.8883 19.8582 16.8567 19.7632 16.8567 19.6682C16.7617 19.3824 16.6033 19.1291 16.3183 18.9699L12.26 16.6557C11.6892 16.3391 10.96 16.5291 10.6433 17.0999C10.3258 17.6707 10.5158 18.3999 11.0867 18.7166L13.3375 20.0166L11.0867 21.3166C10.5158 21.6332 10.3258 22.3632 10.6425 22.9332C10.9592 23.5041 11.6892 23.6949 12.2592 23.3774L16.2858 21.0632C16.5717 20.8407 16.7617 20.6191 16.825 20.3332ZM17.935 22.5216C17.7133 22.4899 17.46 22.5532 17.2375 22.6799L13.2108 24.9941C12.64 25.3107 12.45 26.0407 12.7675 26.6107C13.0842 27.1824 13.8133 27.3724 14.3842 27.0549L16.635 25.7549V28.3549C16.635 29.0216 17.1742 29.5282 17.84 29.5282C18.5058 29.5282 19.0125 28.9891 19.0125 28.3549V23.6949C19.0125 23.0607 18.5375 22.5532 17.935 22.5216ZM22.0567 17.4482C22.2783 17.4799 22.5317 17.4166 22.7542 17.2899L26.7808 14.9757C27.3517 14.6591 27.5417 13.9291 27.2242 13.3591C26.9075 12.7874 26.1783 12.5974 25.6075 12.9149L23.3567 14.2149V11.6457C23.3567 10.9799 22.8175 10.4724 22.1517 10.4724C21.4858 10.4724 20.9467 10.9799 20.9467 11.6457V16.2749C20.9467 16.9082 21.4542 17.4174 22.0567 17.4482ZM13.2108 14.9749L17.2375 17.2891C17.4592 17.4157 17.6817 17.4474 17.935 17.4474C18.5375 17.4157 19.0442 16.8774 19.0442 16.2749V11.6457C19.0442 10.9799 18.5058 10.4724 17.8717 10.4724C17.2058 10.4724 16.6667 11.0116 16.6667 11.6457V14.2457L14.4158 12.9457C13.845 12.6291 13.1158 12.8191 12.7992 13.3899C12.45 13.9282 12.6408 14.6574 13.2108 14.9749ZM20.7883 19.9841C20.7845 19.9011 20.7508 19.8224 20.6933 19.7624L20.2183 19.2866C20.1904 19.2556 20.156 19.231 20.1175 19.2146C20.0791 19.1982 20.0376 19.1904 19.9958 19.1916C19.9129 19.1954 19.8341 19.2291 19.7742 19.2866L19.2983 19.7616C19.2407 19.8217 19.2069 19.9008 19.2033 19.9841C19.2033 20.0474 19.235 20.1424 19.2983 20.2066L19.7733 20.6816C19.8013 20.7126 19.8357 20.7372 19.8741 20.7536C19.9125 20.77 19.9541 20.7779 19.9958 20.7766C20.0592 20.7766 20.1542 20.7449 20.2175 20.6816L20.6933 20.2066C20.751 20.1464 20.7847 20.0673 20.7883 19.9841ZM22.12 20.4282L20.44 22.1082C20.4075 22.1399 20.3125 22.2032 20.2492 22.2032H19.7425C19.6593 22.1997 19.5802 22.1659 19.52 22.1082L17.84 20.4282C17.8001 20.3725 17.7781 20.306 17.7767 20.2374V19.7307C17.7767 19.6674 17.8083 19.5724 17.8717 19.5082L19.5517 17.8282C19.6118 17.7705 19.6909 17.7367 19.7742 17.7332H20.2808C20.3641 17.7367 20.4432 17.7705 20.5033 17.8282L22.1833 19.5082C22.2143 19.5363 22.2388 19.5707 22.2552 19.6091C22.2716 19.6475 22.2795 19.689 22.2783 19.7307V20.2374C22.215 20.3016 22.1833 20.3957 22.12 20.4282ZM26.7808 24.9616L22.7542 22.6474C22.5325 22.5207 22.2792 22.4891 22.0567 22.5207C21.4542 22.5524 20.9467 23.0907 20.9467 23.6941V28.3224C20.9467 28.9891 21.4858 29.4957 22.12 29.4957C22.7858 29.4957 23.325 28.9566 23.325 28.3224V25.7224L25.575 27.0224C26.1467 27.3391 26.8758 27.1491 27.1925 26.5782C27.5417 26.0399 27.3508 25.3107 26.7808 24.9616ZM28.905 18.6841L26.6542 19.9841L28.9042 21.2841C29.4758 21.6007 29.6658 22.3307 29.3483 22.9007C29.0317 23.4716 28.3025 23.6616 27.7317 23.3449L23.705 21.0299C23.4589 20.8715 23.2699 20.6385 23.1658 20.3649C23.135 20.2374 23.1025 20.1107 23.1025 19.9841C23.1025 19.8891 23.135 19.7941 23.135 19.6991C23.23 19.4132 23.42 19.1599 23.6733 19.0016L27.7 16.6866C28.2708 16.3699 29 16.5599 29.3167 17.1307C29.6975 17.6382 29.475 18.3674 28.905 18.6841Z" fill="white"/>
</g>
</g>
<defs>
<clipPath id="clip0_820_3891">
<rect width="40" height="40" fill="white"/>
</clipPath>
<clipPath id="clip1_820_3891">
<rect width="20" height="20" fill="white" transform="translate(10 10)"/>
</clipPath>
</defs>
</svg>

<svg xmlns="http://www.w3.org/2000/svg" width="40" height="40" fill="none" viewBox="0 0 40 40"><g clip-path="url(#snowon_svg-a)"><path fill="#D4F0FA" d="M20 0c11.046 0 20 8.954 20 20s-8.954 20-20 20S0 31.046 0 20 8.954 0 20 0"/><path fill="#29B5E8" d="M26 6a8 8 0 0 1 8 8v12a8 8 0 0 1-8 8H14a8 8 0 0 1-8-8V14a8 8 0 0 1 8-8z"/><g clip-path="url(#snowon_svg-b)"><path fill="#fff" d="M16.825 20.333a1.6 1.6 0 0 0 .063-.38c0-.095-.031-.19-.031-.285-.095-.286-.254-.539-.539-.698l-4.058-2.314c-.57-.317-1.3-.127-1.617.444-.317.57-.127 1.3.444 1.617l2.25 1.3-2.25 1.3c-.571.316-.761 1.046-.444 1.616.316.571 1.046.762 1.616.444l4.027-2.314c.286-.222.476-.444.539-.73m1.11 2.189c-.222-.032-.475.031-.697.158l-4.027 2.314c-.571.317-.761 1.047-.444 1.617s1.046.761 1.617.444l2.251-1.3v2.6c0 .667.54 1.173 1.205 1.173a1.17 1.17 0 0 0 1.172-1.173v-4.66c0-.634-.474-1.142-1.077-1.173m4.122-5.074c.221.032.475-.031.697-.158l4.027-2.314c.57-.317.76-1.047.443-1.617-.317-.572-1.046-.762-1.616-.444l-2.251 1.3v-2.57c0-.665-.54-1.173-1.205-1.173-.666 0-1.205.508-1.205 1.174v4.629a1.18 1.18 0 0 0 1.11 1.173m-8.846-2.473 4.027 2.314c.221.127.444.158.697.158.603-.031 1.11-.57 1.11-1.172v-4.63a1.17 1.17 0 0 0-1.173-1.173c-.666 0-1.205.54-1.205 1.174v2.6l-2.251-1.3c-.571-.317-1.3-.127-1.617.444-.349.538-.158 1.267.412 1.585m7.577 5.01a.34.34 0 0 0-.095-.223l-.475-.475a.3.3 0 0 0-.222-.095.34.34 0 0 0-.222.095l-.476.475a.34.34 0 0 0-.095.222c0 .063.032.158.095.223l.475.475a.3.3 0 0 0 .223.095.34.34 0 0 0 .222-.095l.475-.475a.34.34 0 0 0 .095-.223m1.332.443-1.68 1.68c-.033.032-.128.095-.19.095h-.508a.34.34 0 0 1-.222-.095l-1.68-1.68a.34.34 0 0 1-.063-.19v-.507c0-.064.031-.159.095-.223l1.68-1.68a.34.34 0 0 1 .222-.095h.507a.34.34 0 0 1 .222.095l1.68 1.68a.3.3 0 0 1 .095.223v.506c-.063.065-.095.159-.158.191m4.66 4.534-4.026-2.315c-.222-.126-.475-.158-.697-.126-.603.031-1.11.57-1.11 1.173v4.628a1.17 1.17 0 0 0 1.173 1.174c.666 0 1.205-.54 1.205-1.174v-2.6l2.25 1.3c.572.317 1.3.127 1.617-.444.35-.538.159-1.267-.411-1.616m2.125-6.278-2.25 1.3 2.25 1.3c.57.317.76 1.047.443 1.617-.316.57-1.046.76-1.616.444l-4.027-2.315a1.37 1.37 0 0 1-.54-.665c-.03-.128-.062-.254-.062-.38 0-.096.032-.19.032-.286.095-.286.285-.54.538-.697l4.027-2.315c.57-.317 1.3-.127 1.617.444.38.507.158 1.236-.412 1.553"/></g></g><defs><clipPath id="snowon_svg-a"><path fill="#fff" d="M0 0h40v40H0z"/></clipPath><clipPath id="snowon_svg-b"><path fill="#fff" d="M10 10h20v20H10z"/></clipPath></defs></svg>
